X:1
T:Nuernberger Dreher
C:traditionell
R:dreher
A:Franken, Deutschland
%%textfont Helvetica-Narrow 10pt
%%begintext align
B:"Schule fuer Drehleier", Barbara Behringer (anm: verh. Grimm), Der Verlag mit der Blume, 4.Auflage, Nuernberg 1988
N:dort ganz in C, einstimmig, seite 53 
%%endtext
F:http://simonwascher.info
Z:abc transcription Simon Wascher
M:2/4
L:1/8
K:C
ed ed | ef g2 | de fd | ef g2 |
ed ed | ef g2 | de fd | c2 c2 :|
|:\
de fd | ef g2 |de fd | ef g2 |
ed ed | ef g2 | de fd | c2 c2 :|
%%wordsfont Times-Italic 11pt
W:aus Simon Waschers TradArchiv
